src/16/panel/viber-normal.svg

<svg xmlns="http://www.w3.org/2000/svg" width="16" height="16" version="1.1">
 <defs>
  <style id="current-color-scheme" type="text/css">
   .ColorScheme-Text { color:#dfdfdf; } .ColorScheme-Highlight { color:#5294e2; }
  </style>
 </defs>
 <path style="fill:currentColor" class="ColorScheme-Text" d="M 8.5 1 A 0.50005 0.50005 0 1 0 8.5 2 C 11.113636 2 12.401878 3.0141208 13.136719 4.2011719 C 13.87156 5.3882229 14 6.8055556 14 7.5 A 0.50005 0.50005 0 1 0 15 7.5 C 15 6.6944444 14.87844 5.1117771 13.988281 3.6738281 C 13.098122 2.2358792 11.386364 1 8.5 1 z M 3.5292969 1.0058594 C 3.4243857 0.99616337 3.3212553 0.99756988 3.2460938 1.0136719 L 3.2441406 1.0136719 C 3.0242559 1.0598384 2.7488238 1.22302 2.1523438 1.6640625 C 1.7940357 1.9307517 1.303086 2.4086176 1.1875 2.6015625 C 0.9193158 3.0587949 0.93517287 3.4462835 1.2617188 4.3398438 C 1.8217119 5.8721062 2.6390447 7.3503198 3.7148438 8.7753906 C 5.7737806 11.501883 8.3672746 13.484565 11.615234 14.814453 C 12.029104 14.984359 12.16366 15.012106 12.488281 14.996094 C 12.881151 14.977424 13.180693 14.856635 13.601562 14.539062 C 14.067056 14.188579 14.732799 13.366286 14.904297 12.927734 C 15.06617 12.511421 15.021872 12.134288 14.78125 11.839844 C 14.644752 11.677055 13.635682 10.857543 13.164062 10.529297 C 12.806192 10.28111 12.252669 9.9402487 11.998047 9.8085938 C 11.662926 9.6386884 11.328324 9.6084451 11.001953 9.71875 C 10.744707 9.806816 10.660527 9.8817017 10.285156 10.349609 C 10.090909 10.5889 9.9114216 10.805712 9.8886719 10.826172 C 9.8632969 10.846632 9.7831553 10.893047 9.7070312 10.927734 C 9.4042851 11.068284 8.9877885 10.982744 8.3105469 10.646484 C 7.7829285 10.387626 7.3161278 10.059202 6.7871094 9.5761719 C 6.3362275 9.1678651 5.8815749 8.6341732 5.6269531 8.21875 C 5.2985696 7.6832364 5.0492375 6.9876265 5.046875 6.6035156 C 5.046875 6.4381469 5.114142 6.2032741 5.1972656 6.0839844 C 5.2296402 6.0360373 5.4344122 5.8544893 5.6542969 5.6777344 C 6.2023901 5.2390047 6.3261041 5.1036825 6.4003906 4.8417969 C 6.4723147 4.5985918 6.3947377 4.2676631 6.1660156 3.8242188 C 5.765883 3.0475464 4.5431977 1.4945401 4.1035156 1.2050781 C 4.031679 1.1589101 3.9049802 1.0939827 3.8242188 1.0664062 C 3.7408323 1.0364282 3.6342081 1.0156444 3.5292969 1.0058594 z M 9.5 3 A 0.50005 0.50005 0 1 0 9.5 4 C 10.083333 4 10.725052 4.307083 11.208984 4.7910156 C 11.692917 5.2749482 12 5.9166667 12 6.5 A 0.50005 0.50005 0 1 0 13 6.5 C 13 5.5833333 12.557083 4.7250518 11.916016 4.0839844 C 11.274948 3.442917 10.416667 3 9.5 3 z M 9.5 4.9433594 A 0.50005 0.50005 0 1 0 9.5 5.9433594 C 9.564359 5.9433594 9.7021797 5.9986374 9.8144531 6.1210938 C 9.9267265 6.2435498 9.9902344 6.4132743 9.9902344 6.5 A 0.50005 0.50005 0 1 0 10.990234 6.5 C 10.990234 6.0867257 10.808419 5.7263175 10.550781 5.4453125 C 10.293143 5.1643075 9.9356408 4.9433594 9.5 4.9433594 z"/>
</svg>

<svg xmlns="http://www.w3.org/2000/svg" width="16" height="16"><defs><style id="current-color-scheme" type="text/css"></style></defs><path d="M8.5 1a.5.5 0 1 0 0 1c2.614 0 3.902 1.014 4.637 2.201C13.872 5.388 14 6.806 14 7.5a.5.5 0 1 0 1 0c0-.806-.122-2.388-1.012-3.826C13.098 2.236 11.386 1 8.5 1zm-4.97.006a1.005 1.005 0 0 0-.284.008h-.002c-.22.046-.495.209-1.092.65-.358.267-.849.745-.965.938-.268.457-.252.844.075 1.738.56 1.532 1.377 3.01 2.453 4.435 2.059 2.727 4.652 4.71 7.9 6.04.414.17.549.197.873.181.393-.019.693-.14 1.114-.457.465-.35 1.13-1.173 1.302-1.611.162-.417.118-.794-.123-1.088-.136-.163-1.145-.982-1.617-1.31a13.883 13.883 0 0 0-1.166-.721c-.335-.17-.67-.2-.996-.09-.257.088-.341.163-.717.63-.194.24-.374.457-.396.477-.026.02-.106.067-.182.102-.303.14-.72.055-1.396-.282-.528-.258-.995-.587-1.524-1.07-.45-.408-.905-.942-1.16-1.357-.328-.536-.578-1.231-.58-1.615 0-.166.067-.4.15-.52.033-.048.237-.23.457-.406.548-.439.672-.574.746-.836.072-.243-.005-.574-.234-1.018-.4-.776-1.623-2.33-2.062-2.619a1.576 1.576 0 0 0-.28-.139c-.083-.03-.19-.05-.295-.06zM9.5 3a.5.5 0 1 0 0 1c.583 0 1.225.307 1.709.791.484.484.791 1.126.791 1.709a.5.5 0 1 0 1 0c0-.917-.443-1.775-1.084-2.416S10.416 3 9.5 3zm0 1.943a.5.5 0 1 0 0 1c.064 0 .202.056.314.178a.673.673 0 0 1 .176.379.5.5 0 1 0 1 0c0-.413-.182-.774-.44-1.055-.257-.28-.614-.502-1.05-.502z" fill="currentColor" color="#dfdfdf"/></svg>
